src/images/chrome.svg

<svg width="102" height="100" viewBox="0 0 102 100" fill="none" xmlns="http://www.w3.org/2000/svg">
<g id="chrome 2">
<g id="chrome">
<path id="Path" d="M50.768 0.00943446C50.768 0.00943446 80.7786 -1.31478 96.6843 28.2587C88.2817 28.2587 48.2166 28.2587 48.2166 28.2587C48.2166 28.2587 39.0632 27.9633 31.2603 38.8532C29.0096 43.4141 26.6093 48.1227 29.3102 57.3915C25.4092 50.9188 8.60242 22.2266 8.60242 22.2266C8.60242 22.2266 20.4575 1.186 50.768 0.00943446Z" fill="#E16B5A"/>
<path id="Path_2" d="M95.1222 75.0953C95.1222 75.0953 81.2836 101.238 47.2104 99.9523C51.4137 92.8187 71.4503 58.7992 71.4503 58.7992C71.4503 58.7992 76.2874 51.1734 70.5754 39.1031C67.6717 34.9109 58.8754 30.5172 49.3379 28.175C57.008 28.1 96.5888 28.1797 96.5888 28.1797C96.5888 28.1797 109.241 48.7695 95.1222 75.0953Z" fill="#FFD464"/>
<path id="Path_3" d="M6.62756 75.2938C6.62756 75.2938 -9.54212 50.4688 8.63177 22.1782C12.8319 29.3149 32.8573 63.3407 32.8573 63.3407C32.8573 63.3407 37.1711 71.261 50.6892 72.4454C55.8421 72.0767 61.2025 71.7634 68.0399 64.8376C64.2701 71.3868 47.3274 99.9993 47.3274 99.9993C47.3274 99.9993 22.8171 100.448 6.62756 75.2938Z" fill="#74B340"/>
<ellipse id="Oval" cx="50.6462" cy="50.4062" rx="23.0643" ry="22.6562" fill="white"/>
<ellipse id="Oval_2" cx="50.6383" cy="50.4062" rx="18.2924" ry="17.9688" fill="#2995CC"/>
<path id="Path_4" d="M50.6431 32.4414C50.2788 32.4414 49.9186 32.4547 49.5607 32.475C59.1586 33.0258 66.7698 40.8437 66.7698 50.4094C66.7698 59.9766 59.1586 67.7953 49.5607 68.3461C49.9194 68.3656 50.2796 68.3797 50.6431 68.3797C60.7445 68.3797 68.9355 60.3336 68.9355 50.4094C68.9355 40.4867 60.7445 32.4414 50.6431 32.4414Z" fill="#268CBF"/>
</g>
</g>
</svg>

<svg xmlns="http://www.w3.org/2000/svg" width="102" height="100" fill="none"><path fill="#E16B5A" d="M50.768.01s30.01-1.325 45.916 28.249H48.217s-9.154-.296-16.957 10.594c-2.25 4.561-4.65 9.27-1.95 18.538-3.9-6.472-20.708-35.164-20.708-35.164S20.457 1.186 50.768.009Z"/><path fill="#FFD464" d="M95.122 75.095S81.284 101.238 47.21 99.952C51.414 92.82 71.45 58.8 71.45 58.8s4.837-7.626-.875-19.696c-2.903-4.192-11.7-8.586-21.237-10.928 7.67-.075 47.25.005 47.25.005s12.653 20.59-1.466 46.915Z"/><path fill="#74B340" d="M6.628 75.294s-16.17-24.825 2.004-53.116l24.225 41.163s4.314 7.92 17.832 9.104c5.153-.368 10.514-.682 17.35-7.607-3.769 6.549-20.712 35.161-20.712 35.161s-24.51.449-40.7-24.705Z"/><ellipse cx="50.646" cy="50.406" fill="#fff" rx="23.064" ry="22.656"/><ellipse cx="50.638" cy="50.406" fill="#2995CC" rx="18.292" ry="17.969"/><path fill="#268CBF" d="M50.643 32.441c-.364 0-.724.014-1.082.034 9.598.55 17.209 8.369 17.209 17.934 0 9.568-7.611 17.386-17.21 17.937.36.02.72.034 1.083.034 10.102 0 18.293-8.046 18.293-17.97 0-9.923-8.192-17.969-18.293-17.969Z"/></svg>
